X: 5
T: Missa L'homme arm\'e / Agnus Dei
N: Derived from Bus1001e-Missa_Lhomme_arme-Agnus.krn
C: Antoine Busnoys
%%abc-version 2.0
%%abcx-abcm2ps-target-version 5.9.1 (29 Sep 2008)
%%abc-creator hum2abc beta
%%abcx-conversion-date 2019/02/16 20:26:06
%%abc-edited-by Jesse Rodin
%%abc-edited-by Will Watson
%%abcx-initial-encoding-date 2014/02/22/
%%humdrum-veritas 4211111760
%%humdrum-veritas-data 522704935
%%linebreak <none>
%%barnumbers 0
L: 1/4
M: 3/1
Q: 1/2=120
%%staves [1 2 3 4]
V: 1 clef=treble
V: 2 clef=treble-8
V: 3 clef=treble-8
V: 4 clef=bass
K: F
[V:1] G12- | 
[V:2] G8G4 | 
[V:3] z12 | 
[V:4] z12 :
[V:1] G4A6G2 | 
[V:2] c8c4 | 
[V:3] z12 | 
[V:4] z12 :
[V:1] G4c6B2 | 
[V:2] B4A6G2 | 
[V:3] z12 | 
[V:4] z12 | 
[V:1] B3AB2c2A4 | 
[V:2] G3FG2A4F2 | 
[V:3] z12 | 
[V:4] z12 :
[V:1] z2D4G4F2 | 
[V:2] G3AB2c2A4 | 
[V:3] z12 | 
[V:4] z12 :
[V:1] G2D2EDCB,A,3G, | 
[V:2] z2G4E2F4 | 
[V:3] z12 | 
[V:4] z12 | 
[V:1] G,4z2G,2B,2C2 | 
[V:2] G2B2c2d4e2 | 
[V:3] z12 | 
[V:4] z12 :
[V:1] D4E2D2F2G2 | 
[V:2] d2f2g2a3ge2 | 
[V:3] z12 | 
[V:4] z12 :
[V:1] A2B4G4^F2 | 
[V:2] f2d3cB2A4 | 
[V:3] z12 | 
[V:4] z12 | 
[V:1] G2B4c2A2c2- | 
[V:2] z2G2d3ef3e | 
[V:3] z12 | 
[V:4] z12 :
[V:1] cBG2F2A3GE2 | 
[V:2] c2B2d3cA2G2 | 
[V:3] z12 | 
[V:4] z12 :
[V:1] D2F3EC2B,2D2- | 
[V:2] B3AF2E2G3F | 
[V:3] z12 | 
[V:4] z12 | 
[V:1] DCA,2G,2G4^F2 | 
[V:2] D2F2G2B2A4 | 
[V:3] z4z4c4 | 
[V:4] z12 :
[V:1] G12 | 
[V:2] G4z2G4B2 | 
[V:3] B2d4c2B2AG | 
[V:4] G,8G,4 :
[V:1] z4z4F4 | 
[V:2] A2d3ef3edc | 
[V:3] F2B2A2d3cA2 | 
[V:4] D,8D,4 | 
[V:1] G4A8 | 
[V:2] B2c3Bd3cA2 | 
[V:3] G4z4D4 | 
[V:4] _E,4F,8 :
[V:1] B6A3GF2 | 
[V:2] G6d3ef2 | 
[V:3] d4e2f3ed2 | 
[V:4] G,4z4z4 :
[V:1] E2G3FE2D4 | 
[V:2] g4c4z2G2 | 
[V:3] c2_e3dc4=B2 | 
[V:4] C,4C,4G,4 | 
[V:1] C2E4F2G2A2 | 
[V:2] A3GE2A2G2c2- | 
[V:3] c12 | 
[V:4] z4C,4C,4 :
[V:1] G2c2B2AG^F3E | 
[V:2] cde2d2cBA4 | 
[V:3] z4z4d4 | 
[V:4] C,4D,8 :
[V:1] G4z4A4 | 
[V:2] G4D8 | 
[V:3] B4A6G2 | 
[V:4] _E,4F,8 | 
[V:1] B4G2B3AG2 | 
[V:2] d4e2d2g3f | 
[V:3] G4z2G4A2 | 
[V:4] G,12 :
[V:1] F2D2_E2G4^F2 | 
[V:2] d4G4A4 | 
[V:3] B4_E4D4 | 
[V:4] z12 :
[V:1] G3AB2c4=B2 | 
[V:2] G2g3fe2d4 | 
[V:3] G3F_E2C2G4 | 
[V:4] z12 | 
[V:1] c6BAG2F_E | 
[V:2] z2c3d_e3f_ed/c/ | 
[V:3] z12 | 
[V:4] C,4C,4C,4 :
[V:1] D2G4_E2D4 | 
[V:2] B2_e3dc3=B=BA | 
[V:3] z12 | 
[V:4] G,12 :
[V:1] C4z4z4 | 
[V:2] c4B2G2A4 | 
[V:3] C2E2D2G4^F2 | 
[V:4] z12 | 
[V:1] G4F2D2E4 | 
[V:2] G4z4z4 | 
[V:3] G2B2A2d4^c2 | 
[V:4] z12 :
[V:1] D4E2F2G2A2 | 
[V:2] B4c2d4c2 | 
[V:3] d4c2B4A2 | 
[V:4] z12 :
[V:1] B2c3BAG^F3E | 
[V:2] B2A2G4z2c2 | 
[V:3] G2F2G2B2A4 | 
[V:4] z12 | 
[V:1] G6E2D4 | 
[V:2] B2d4cBcBAG | 
[V:3] G4z4G4 | 
[V:4] G,,8G,,4 :
[V:1] z4z4A4 | 
[V:2] F2A3G^FE^F3E | 
[V:3] c3de2f3edc | 
[V:4] A,,8A,,4 :
[V:1] B4G2G3FD2 | 
[V:2] G6F2D4 | 
[V:3] B2d3cd2=B=B2A | 
[V:4] G,,8G,,4 | 
[V:1] E6C2E3F | 
[V:2] z2C2E3FG2A2 | 
[V:3] c2BAG4z2C2 | 
[V:4] C,12 :
[V:1] G2A3GG2F2G2 | 
[V:2] G2c4B2A2G2 | 
[V:3] E2F4G2D2G2- | 
[V:4] z12 :
[V:1] B2A4G4^F2 | 
[V:2] d4c2B2A4 | 
[V:3] G2F4G2D4 | 
[V:4] z12 | 
[V:1] G12 ||  
[V:2] G12 ||  
[V:3] d12 ||  
[V:4] z12 ||  
[V:1]  [K:F] [K:clef=treble][M:3/1]z12 | 
[V:2]  [K:F] [K:clef=treble-8][M:3/1]G3AB2c4A2 | 
[V:3]  [K:F] [K:clef=treble-8][M:3/1]z12 | 
[V:4]  [K:F] [K:clef=bass][M:3/1]z12 | 
[V:1] G3AB2c4A2 | 
[V:2] G4z4f4 | 
[V:3] z12 | 
[V:4] z12 | 
[V:1] G4z4E4 | 
[V:2] g3ef2g4c2 | 
[V:3] z12 | 
[V:4] z12 | 
[V:1] F2G4C2D2E2 | 
[V:2] d2e2c3AB2c2- | 
[V:3] z12 | 
[V:4] z12 | 
[V:1] C3A,B,2C4E2 | 
[V:2] c2e2d2c2g4 | 
[V:3] z12 | 
[V:4] z12 | 
[V:1] D2C2G4F2E2- | 
[V:2] f2e3ce2d2c2 | 
[V:3] z12 | 
[V:4] z12 | 
[V:1] ECE2D2C2G4 | 
[V:2] g4f2g2e3c | 
[V:3] z12 | 
[V:4] z12 | 
[V:1] F2G3FE2D4 | 
[V:2] d2e4c4=B2 | 
[V:3] z12 | 
[V:4] z12 | 
[V:1] C12 | 
[V:2] c4z4z4 | 
[V:3] C3DE2F4G2 | 
[V:4] z12 | 
[V:1] z12 | 
[V:2] c3de2f4g2 | 
[V:3] E2A3GA2B4 | 
[V:4] z12 | 
[V:1] z12 | 
[V:2] e2d4g4^f2 | 
[V:3] c2d4B2A4 | 
[V:4] z12 | 
[V:1] z12 | 
[V:2] g4a2g2e2f2 | 
[V:3] G2E2F2G4A2 | 
[V:4] z12 | 
[V:1] z12 | 
[V:2] edc2d2f2e2f2 | 
[V:3] G2E2F2EDC2D2 | 
[V:4] z12 | 
[V:1] z12 | 
[V:2] d2c4f2g2e2 | 
[V:3] F2E2F2D2C2G2- | 
[V:4] z12 | 
[V:1] z12 | 
[V:2] d2e3dc2=B3c | 
[V:3] GFE3CE2D2G2- | 
[V:4] z12 | 
[V:1] z12 | 
[V:2] d2e4c2A2=B2 | 
[V:3] GFE3CE2D4 | 
[V:4] z12 | 
[V:1] z4z4C4 | 
[V:2] c8z4 | 
[V:3] C4z4C2E2 | 
[V:4] z12 | 
[V:1] A,2G,2B,2C2D4 | 
[V:2] z12 | 
[V:3] F2G4E2D2F2 | 
[V:4] z12 | 
[V:1] B,2A,2C2D2_E4 | 
[V:2] z12 | 
[V:3] G2A4F2_E2G2 | 
[V:4] z12 | 
[V:1] C2B,2D2E2F4 | 
[V:2] z12 | 
[V:3] A2B4G2F2A2 | 
[V:4] z12 | 
[V:1] D2C2E2F2G4 | 
[V:2] z12 | 
[V:3] B2c4A2G2B2 | 
[V:4] z12 | 
[V:1] E2D2F2G2A2B2- | 
[V:2] z12 | 
[V:3] c2d4B2A2G2 | 
[V:4] z12 | 
[V:1] B2A3GG4^F2 | 
[V:2] z4z4c4 | 
[V:3] d6B2A4 | 
[V:4] z12 | 
[V:1] G4z2G4B2 | 
[V:2] B2d3cBAB2AG | 
[V:3] G12 | 
[V:4] z12 | 
[V:1] A2G2A2c2B2AG | 
[V:2] F2c3BA2G2d2- | 
[V:3] z12 | 
[V:4] z12 | 
[V:1] F2G2A2B3AGF | 
[V:2] dcB2A2G3AB2 | 
[V:3] z4z4z2G2 | 
[V:4] z12 | 
[V:1] E2D4G4^F2 | 
[V:2] c2d2B2G2A4 | 
[V:3] A2F2G2E2D4 | 
[V:4] z12 | 
[V:1] G12 ||  
[V:2] G12 ||  
[V:3] d12 ||  
[V:4] z12 ||  
[V:1]  [K:F] [K:clef=treble][M:2/1]G8- | 
[V:2]  [K:F] [K:clef=treble-8][M:2/1]z8 | 
[V:3]  [K:F] [K:clef=treble-8][M:2/1]G6F2 | 
[V:4]  [K:F] [K:clef=bass][M:2/1]G,,8- :
[V:1] G4F2E2 | 
[V:2] G6A2 | 
[V:3] E3DD4 | 
[V:4] G,,8 :
[V:1] D4E4 | 
[V:2] B3cB2AG | 
[V:3] z2G4B2 | 
[V:4] G,,8 :
[V:1] F4-(3F2E2D2 | 
[V:2] F4C2F2- | 
[V:3] A2F2A3B | 
[V:4] A,,8- :
[V:1] C3B,C3D | 
[V:2] FAA3Bc2- | 
[V:3] c4A4 | 
[V:4] A,,8 :
[V:1] E2F3EDC | 
[V:2] cBAG^F3E | 
[V:3] z2c4A2 | 
[V:4] A,,8 | 
[V:1] B,2G,2B,3C | 
[V:2] G8 | 
[V:3] B3cd4 | 
[V:4] G,,8- :
[V:1] D2G4FE | 
[V:2] z4g4- | 
[V:3] G6A2 | 
[V:4] G,,8 :
[V:1] D2C2D4 | 
[V:2] g4g4 | 
[V:3] B2c4=B2 | 
[V:4] G,,8 :
[V:1] C4z4 | 
[V:2] e6c2 | 
[V:3] c6B2 | 
[V:4] C,8- :
[V:1] C6B,2 | 
[V:2] e2f2g4 | 
[V:3] A4G4 | 
[V:4] C,8- :
[V:1] A,4G,4 | 
[V:2] c6B2 | 
[V:3] z4E4 | 
[V:4] C,8 | 
[V:1] F4G2A2- | 
[V:2] A4G2F2 | 
[V:3] F2D2E2F2 | 
[V:4] z8 :
[V:1] A2G4^F2 | 
[V:2] B4A4 | 
[V:3] G4D4 | 
[V:4] x8 :
[V:1] G8 | 
[V:2] G8 | 
[V:3] d8 | 
[V:4] G,,8 :
[V:1] z8 | 
[V:2] A8- | 
[V:3] z8 | 
[V:4] F,,8- :
[V:1] z8 | 
[V:2] A8 | 
[V:3] z8 | 
[V:4] F,,8 :
[V:1] z8 | 
[V:2] G8 | 
[V:3] z8 | 
[V:4] G,,8 | 
[V:1] z8 | 
[V:2] z8 | 
[V:3] c8 | 
[V:4] A,,8 :
[V:1] z8 | 
[V:2] z8 | 
[V:3] d8- | 
[V:4] B,,8- :
[V:1] z8 | 
[V:2] z8 | 
[V:3] d8 | 
[V:4] B,,8 :
[V:1] G8 | 
[V:2] z8 | 
[V:3] c4-(3c2B2A2 | 
[V:4] C,8- :
[V:1] E6F2 | 
[V:2] c6d2 | 
[V:3] G4A4 | 
[V:4] C,8- :
[V:1] G4A4 | 
[V:2] _e4_e4 | 
[V:3] G4c3B | 
[V:4] C,8 | 
[V:1] B6A2 | 
[V:2] d2d4c2 | 
[V:3] G3FD4 | 
[V:4] z8 :
[V:1] G2FGA2c2 | 
[V:2] B2AGF2A2 | 
[V:3] E4F4 | 
[V:4] x8 :
[V:1] B2G4^F2 | 
[V:2] G2B2A4 | 
[V:3] G4D4 | 
[V:4] x8 :
[V:1] G2FEFEDC | 
[V:2] G4z2G2- | 
[V:3] z2G2B2c2 | 
[V:4] G,8- :
[V:1] B,4G,2B,2- | 
[V:2] GAB3cd2- | 
[V:3] d2cd_e2d2- | 
[V:4] G,8 :
[V:1] B,2C2D2E2 | 
[V:2] d2_e2d2cB | 
[V:3] d2cBcBAG | 
[V:4] G,8 | 
[V:1] F8 | 
[V:2] A2d4cB | 
[V:3] F2B3cd2- | 
[V:4] D,8- :
[V:1] z8 | 
[V:2] cBAGF2B2- | 
[V:3] def3ed2- | 
[V:4] D,8 :
[V:1] D4D4 | 
[V:2] BAG4^F2 | 
[V:3] dcB2A4 | 
[V:4] D,8 :
[V:1] B,3CB,2A,G, | 
[V:2] G4z2B2 | 
[V:3] z2G3_EG2 | 
[V:4] _E,8 :
[V:1] F,3G,A,4 | 
[V:2] A3Bc2d2- | 
[V:3] D4z2D2 | 
[V:4] F,8- :
[V:1] z4D4- | 
[V:2] d2cBA4 | 
[V:3] B,2C2D4 | 
[V:4] F,8 | 
[V:1] D4E4- | 
[V:2] G4z2g2- | 
[V:3] z2G3FE2- | 
[V:4] G,8- :
[V:1] E2F2G4- | 
[V:2] gfe2d2c2 | 
[V:3] EDC2B,2C2- | 
[V:4] G,8- :
[V:1] G2E2E4 | 
[V:2] d4c4 | 
[V:3] C2=B,2C4 | 
[V:4] G,8 :
[V:1] F2G4A2 | 
[V:2] d2c2e2f2 | 
[V:3] z2c3BA2 | 
[V:4] z8 :
[V:1] B3GA2G2- | 
[V:2] g2e2f2ed | 
[V:3] G4F2G2 | 
[V:4] x8 :
[V:1] G2c4=B2 | 
[V:2] c2e2d4 | 
[V:3] E2C2G4 | 
[V:4] x8 | 
[V:1] c4-(3c2B2A2 | 
[V:2] c4z2g2- | 
[V:3] z2c3d_e2- | 
[V:4] C,8 :
[V:1] G4z4 | 
[V:2] g2e2fedc | 
[V:3] edc4_e2 | 
[V:4] C,8 :
[V:1] G6F2 | 
[V:2] B2A2B4 | 
[V:3] d2c2d4 | 
[V:4] G,8 :
[V:1] E2DCD4 | 
[V:2] c2A2G4 | 
[V:3] c2c4=B2 | 
[V:4] z8 :
[V:1] E4C4 | 
[V:2] g4e2f2 | 
[V:3] c4g4 | 
[V:4] C,8 :
[V:1] G4E2F2 | 
[V:2] g4c4 | 
[V:3] e2f2g4 | 
[V:4] C,8 | 
[V:1] G4C4 | 
[V:2] z4_e4 | 
[V:3] c4z2c2 | 
[V:4] C,8 :
[V:1] F3GABA2- | 
[V:2] d2d3cA2 | 
[V:3] A2B2A2d2- | 
[V:4] D,8- :
[V:1] AGG3^FFE | 
[V:2] z2d6 | 
[V:3] dcB2A4 | 
[V:4] D,8 :
[V:1] G4z2G,2 | 
[V:2] B3GB2c2 | 
[V:3] z2G6 | 
[V:4] _E,8 :
[V:1] A,3B,C2D2- | 
[V:2] d4z2f2- | 
[V:3] F2D2C2B,2- | 
[V:4] F,8- :
[V:1] D2CB,A,4 | 
[V:2] f2e2d3c | 
[V:3] B,2C2D4 | 
[V:4] F,8 | 
[V:1] G,8 | 
[V:2] B2_e4d2 | 
[V:3] z4G4 | 
[V:4] G,8- :
[V:1] G8 |]  
[V:2] d8 |]  
[V:3] G8 |]  
[V:4] G,8 |]  



